X:1
T:[ID 2-95]
T:[ID 2-95]
T:Bezeichnung standardisiert: Courante Courant
T:Urheber unbekannt Erstbeleg: 1767 (Datum in der schriftlichen Quelle) Datum in der hier transkribierten schriftlichen Quelle: 1776 - 1791
C:Urheber unbekannt
C:Erstbeleg: 1767 (Datum in der schriftlichen Quelle)
C:Datum in der hier transkribierten schriftlichen Quelle: 1776 - 1791
L:1/8
M:2/4
K:D
V:1 treble 
V:1
 (f/g/) | aaaa | a2 f2 |{a} ggee | f/e/f/g/ ff | gg e/f/g/e/ | f3 :: d | e/f/g/e/ fd | %9
 f/e/f/g/ fd | efge | f/e/f/g/ ag | fe/d/ e/g/e/c/ | d3 :| %14

